wp-content/plugins/google-analytics-for-wordpress/lite/assets/vue/img/yir-charlie.svg

<svg width="300" height="293" viewBox="0 0 300 293" fill="none" xmlns="http://www.w3.org/2000/svg">
    <path d="M216.578 246.416H163.74V292.659H215.613C223.816 289.04 230.572 283.893 235.478 277.861C233.547 267.889 226.39 254.86 216.578 246.416Z" fill="#6F4BBB"/>
    <path d="M213.522 250.276C220.519 257.514 227.436 266.28 229.768 276.252C225.586 281.239 220.117 285.099 214.246 287.914H169.853V250.276H213.522Z" fill="#7D5DC2"/>
    <path d="M225.747 266.039C227.114 267.969 229.687 275.77 229.848 276.253C225.666 281.239 220.197 285.099 214.327 287.914H190.682V267.728C202.344 267.647 214.005 267.084 225.747 266.039Z" fill="#9478CF"/>
    <path d="M216.82 282.847C211.351 284.697 208.777 288.155 207.973 292.659H227.033C225.746 288.798 222.127 284.054 216.82 282.847Z" fill="#5F3EA7"/>
    <path d="M216.901 284.938C219.876 285.742 222.37 288.075 223.978 290.729H216.82V284.938H216.901Z" fill="#6F4BBB"/>
    <path d="M198.001 281.721C190.683 283.732 187.144 288.638 186.259 292.659H211.673C209.984 288.397 204.837 282.687 198.001 281.721Z" fill="#5F3EA7"/>
    <path d="M198.162 283.732C202.183 284.456 206.124 287.271 208.456 290.729H198.001V283.732H198.162Z" fill="#6F4BBB"/>
    <path d="M100.368 246.416H153.206V292.659H101.333C93.1302 289.04 86.3747 283.893 81.4689 277.861C83.3186 267.889 90.4762 254.86 100.368 246.416Z" fill="#6F4BBB"/>
    <path d="M103.343 250.276C96.346 257.514 89.4297 266.28 87.0974 276.252C91.2794 281.239 96.7482 285.099 102.619 287.914H147.012V250.276H103.343Z" fill="#7D5DC2"/>
    <path d="M91.2 266.039C89.8328 267.969 87.2593 275.77 87.0985 276.253C91.2805 281.239 96.7492 285.099 102.62 287.914H126.264V267.728C114.603 267.647 102.861 267.084 91.2 266.039Z" fill="#9478CF"/>
    <path d="M100.045 282.847C105.514 284.697 108.088 288.155 108.892 292.659H89.8316C91.1184 288.798 94.7374 284.054 100.045 282.847Z" fill="#5F3EA7"/>
    <path d="M99.965 284.938C96.9894 285.742 94.4962 288.075 92.8878 290.729H100.045V284.938H99.965Z" fill="#6F4BBB"/>
    <path d="M118.864 281.721C126.183 283.732 129.721 288.638 130.606 292.659H105.192C106.881 288.397 112.028 282.687 118.864 281.721Z" fill="#5F3EA7"/>
    <path d="M118.784 283.732C114.763 284.456 110.822 287.271 108.49 290.729H118.945V283.732H118.784Z" fill="#6F4BBB"/>
    <path d="M299.736 260.65C299.414 269.095 297.484 275.689 293.785 279.791C287.994 279.309 283.088 272.875 280.836 267.326C284.214 261.455 290.809 258.801 299.736 260.65Z" fill="#5F3EA7"/>
    <path d="M296.761 262.983C296.6 267.889 295.313 272.955 292.659 276.655L290.407 263.305C292.418 262.822 294.589 262.822 296.761 262.983Z" fill="#6F4BBB"/>
    <path d="M285.1 265.154C284.537 272.714 283.572 279.389 278.827 286.145C270.302 284.295 263.627 279.55 260.812 271.99C264.994 262.42 274.966 261.133 285.1 265.154Z" fill="#5F3EA7"/>
    <path d="M277.619 282.928L271.909 266.119C275.126 265.476 278.745 265.959 282.203 267.085C281.64 272.795 280.675 277.861 277.619 282.928Z" fill="#6F4BBB"/>
    <path d="M257.112 271.347C255.664 279.952 247.541 284.214 243.44 283.973C241.59 280.837 239.74 276.735 239.74 271.829L243.279 268.854C248.667 267.808 254.377 268.21 257.112 271.347Z" fill="#5F3EA7"/>
    <path d="M244.888 281.078C243.279 278.665 242.234 274.966 242.073 271.427L247.863 270.462L244.888 281.078Z" fill="#6F4BBB"/>
    <path d="M239.66 156.02V271.749C259.685 274.242 283.008 273.438 299.736 260.57C299.414 249.793 298.369 239.258 296.439 229.205C292.819 211.03 285.984 194.463 274.161 180.871C263.706 168.888 253.251 163.178 239.66 156.02Z" fill="#6F4BBB"/>
    <path d="M294.106 257.916C283.651 265.958 258.559 268.451 245.37 266.763V165.349C279.389 183.445 292.9 216.82 294.106 257.916Z" fill="#9478CF"/>
    <path d="M294.106 257.916C288.798 262.018 279.791 264.591 270.381 266.039C269.014 240.223 269.175 201.379 274.966 191.085C287.592 209.019 293.302 231.94 294.106 257.916Z" fill="#A58DD4"/>
    <path d="M270.382 240.706C265.958 240.706 262.42 244.244 262.42 248.667C262.42 253.091 265.958 256.629 270.382 256.629C274.805 256.629 278.344 253.091 278.344 248.667C278.344 244.244 274.805 240.706 270.382 240.706Z" fill="#9478CF"/>
    <path d="M251.402 65.7859C253.734 50.7468 251.161 42.9458 248.105 29.1935C238.534 37.1554 232.422 42.8654 220.761 48.7363C218.429 34.1797 213.282 20.4274 205.802 7.55975L201.379 0C184.329 12.8677 169.773 23.1618 158.514 40.2114C147.254 23.1618 132.698 12.8677 115.648 0L111.225 7.55975C103.746 20.4274 98.5986 34.1797 96.2663 48.7363C84.605 42.8654 78.4929 37.1554 68.9226 29.1935C65.7861 42.8654 63.293 50.6664 65.6252 65.7859L44.5544 71.5764C48.7364 126.586 52.9988 173.472 58.3872 228.481C59.111 236.041 59.9152 243.681 60.7194 251.241C60.9607 253.412 63.6146 257.353 74.8738 257.434C129.883 261.133 187.466 261.133 242.395 257.434C253.654 257.273 256.308 253.412 256.549 251.241C257.353 243.52 258.158 235.8 258.881 228.079C259.203 224.943 259.525 221.806 259.846 218.589C264.431 169.531 268.934 120.634 272.714 71.4959L251.643 65.7055H251.402V65.7859Z" fill="#6F4BBB"/>
    <path d="M199.047 11.5005C208.135 26.9417 213.201 43.2675 214.166 60.1563C223.495 56.6177 234.111 50.8273 243.279 43.3479C245.129 51.5511 244.727 62.2473 242.234 71.5764C249.955 73.3457 257.112 75.1954 264.27 77.2864C260.409 127.792 256.79 178.298 251.804 228.642C251.322 233.628 250.276 244.405 249.713 249.391C247.703 250.517 243.521 250.517 241.832 250.598C186.501 254.297 130.527 254.297 75.1956 250.598C73.4263 250.437 69.3248 250.437 67.3142 249.391C66.7512 244.486 65.7057 233.468 65.2232 228.642C60.3174 178.217 56.6179 127.712 52.7576 77.2864C59.9153 75.1954 67.0729 73.3457 74.7935 71.5764C72.3004 62.2473 71.8983 51.5511 73.748 43.3479C82.8358 50.9077 93.532 56.6177 102.861 60.1563C103.826 43.3479 108.893 26.9417 117.981 11.5005C136.478 25.4941 148.622 35.6273 158.514 55.8939C168.486 35.6273 180.55 25.4941 199.127 11.5005H199.047Z" fill="#9478CF"/>
    <path d="M199.047 11.5005C197.68 33.9385 192.05 58.8696 181.434 69.3245C195.589 67.7965 203.148 66.1076 214.086 60.1563C223.495 56.6177 234.111 50.8273 243.279 43.3479C238.374 58.1457 233.629 68.6811 223.897 78.9753C232.181 78.8144 236.926 76.08 242.234 71.5764C249.955 73.3457 257.112 75.1954 264.27 77.2864C260.409 127.792 256.79 178.298 251.804 228.642C251.322 233.628 250.276 244.405 249.713 249.391C247.703 250.517 243.521 250.517 241.832 250.598C214.166 252.447 186.34 253.332 158.514 253.332V223.254C201.46 226.632 240.706 158.916 195.589 114.442L204.596 119.428C205.722 112.27 203.47 103.343 200.494 96.1053C194.624 82.0313 179.022 71.5764 158.514 69.0833V55.8135C168.486 35.5469 180.469 25.4136 199.047 11.5005Z" fill="#A58DD4"/>
    <path d="M93.1299 78.9753C83.4791 68.6811 78.6537 58.0653 73.7479 43.2675C71.8982 51.4706 72.3003 62.1669 74.7934 71.4959C80.1013 76.08 84.8463 78.8144 93.1299 78.9753ZM109.456 74.7933C104.63 74.7933 100.77 78.734 100.77 83.4789C100.77 88.3043 104.711 92.1646 109.456 92.1646C114.281 92.1646 118.141 88.2239 118.141 83.4789C118.141 78.734 114.201 74.7933 109.456 74.7933ZM77.6887 94.4164C74.3913 94.4164 71.6569 97.1508 71.6569 100.448C71.6569 103.745 74.3913 106.48 77.6887 106.48C80.986 106.48 83.7204 103.745 83.7204 100.448C83.7204 97.0704 81.0664 94.4164 77.6887 94.4164ZM135.513 69.2441C124.897 58.8695 119.267 33.9384 117.9 11.42C108.812 26.8612 103.746 43.1871 102.781 60.0759C113.799 66.0272 121.358 67.716 135.513 69.2441Z" fill="#7D5DC2"/>
    <path d="M237.328 87.4198C229.447 87.4198 223.013 93.8536 223.013 101.735C223.013 109.617 229.447 116.05 237.328 116.05C245.209 116.05 251.643 109.617 251.643 101.735C251.643 93.8536 245.209 87.4198 237.328 87.4198ZM246.577 131.331C243.44 131.331 240.867 133.904 240.867 137.041C240.867 140.177 243.44 142.751 246.577 142.751C249.713 142.751 252.287 140.177 252.287 137.041C252.287 133.904 249.713 131.331 246.577 131.331Z" fill="#9478CF"/>
    <path d="M138.569 133.18C133.502 133.18 128.676 134.226 124.334 136.236V136.638C124.334 160.363 144.118 181.514 169.049 184.731C171.783 179.745 173.392 174.035 173.392 167.923C173.392 148.702 157.87 133.18 138.569 133.18Z" fill="#EC6277"/>
    <path d="M157.549 95.2207C191.568 95.2207 219.153 122.806 219.153 156.825C219.153 190.844 191.568 218.429 157.549 218.429C123.53 218.429 95.9453 190.844 95.9453 156.825C95.9453 122.806 123.53 95.2207 157.549 95.2207Z" fill="#D3E8EF"/>
    <path d="M97.554 142.831C102.942 119.669 121.44 101.494 144.762 96.588C170.176 94.6578 190.764 112.431 190.764 136.639C190.764 161.007 169.854 182.64 144.199 184.892C118.464 187.144 97.6344 169.29 97.6344 144.842C97.5539 144.198 97.554 143.475 97.554 142.831Z" fill="white"/>
    <path d="M176.53 133.18C195.751 133.18 211.272 148.702 211.272 167.923C211.272 187.144 195.751 202.666 176.53 202.666C157.308 202.666 141.787 187.144 141.787 167.923C141.787 148.782 157.308 133.18 176.53 133.18Z" fill="#EA4E64"/>
    <path d="M176.531 145.404C188.996 145.404 199.13 155.457 199.13 168.003C199.13 180.469 189.077 190.602 176.531 190.602C164.065 190.602 153.932 180.549 153.932 168.003C153.932 155.538 163.985 145.404 176.531 145.404Z" fill="#232323"/>
    <path d="M176.529 145.404C181.113 145.404 185.376 146.771 188.915 149.104C184.572 163.499 173.152 175.724 158.515 181.514C155.7 177.734 154.011 172.989 154.011 168.003C153.931 155.538 163.983 145.404 176.529 145.404Z" fill="#323232"/>
    <path d="M151.92 141.946C159.802 141.946 166.155 148.3 166.155 156.181C166.155 164.063 159.802 170.416 151.92 170.416C144.039 170.416 137.685 164.063 137.685 156.181C137.685 148.3 144.039 141.946 151.92 141.946Z" fill="white"/>
    <path d="M230.01 185.053C212.477 175.402 186.099 192.291 188.029 219.635C204.757 214.488 222.852 198.725 230.01 185.053Z" fill="#6F4BBB"/>
    <path d="M230.01 185.053C214.086 185.375 196.473 194.382 188.029 219.635C208.054 217.383 226.712 202.103 230.01 185.053Z" fill="#A58DD4"/>
    <path d="M221.726 207.893C219.393 207.089 208.456 207.33 207.571 208.536C206.526 209.984 209.421 217.383 212.477 222.208C216.498 218.991 219.795 214.568 221.726 207.893Z" fill="#7D5DC2"/>
    <path d="M224.942 205.239C222.61 204.435 211.673 204.676 210.788 205.882C209.742 207.33 212.638 214.729 215.694 219.554C219.715 216.337 223.012 211.914 224.942 205.239Z" fill="white"/>
    <path d="M221.645 201.459C220.921 216.981 200.654 231.939 181.433 226.39C180.388 230.894 183.444 233.548 186.58 234.191C204.032 235.719 220.84 224.701 226.39 210.627C227.998 206.767 226.229 201.942 221.645 201.459Z" fill="#6F4BBB"/>
    <path d="M224.944 230.572C220.118 239.66 212.558 243.923 204.275 245.29C216.097 250.598 226.552 243.52 224.944 230.572Z" fill="#6F4BBB"/>
    <path d="M216.98 232.744C207.491 238.052 198.483 239.74 188.028 238.775C195.668 243.842 210.627 244.405 216.98 232.744Z" fill="#9478CF"/>
    <path d="M136.235 77.7689C155.295 44.7955 205.479 64.0166 200.412 101.011C187.867 80.262 163.659 73.5065 136.235 77.7689Z" fill="#5F3EA7"/>
    <path d="M136.237 77.7688C147.014 59.1911 169.693 57.9848 184.893 68.1985C184.973 72.5413 183.686 75.6778 181.354 78.1709C169.049 72.2196 152.965 69.807 136.237 77.7688Z" fill="#6F4BBB"/>
    <path d="M36.4317 203.148C16.4064 203.148 0.000160217 219.233 0.000160217 239.338C0.000160217 259.444 16.4064 275.529 36.4317 275.529C56.457 275.529 72.8633 259.444 72.8633 239.338C72.8633 219.233 56.457 203.148 36.4317 203.148Z" fill="#6F4BBB"/>
    <path d="M36.432 208.456C19.2215 208.456 5.30836 222.289 5.30836 239.258C5.30836 256.308 19.2215 270.06 36.432 270.06C53.6425 270.06 67.5557 256.227 67.5557 239.258C67.5557 222.289 53.5621 208.456 36.432 208.456Z" fill="#9478CF"/>
    <path d="M36.4315 208.456C24.2072 208.456 13.6718 215.453 8.52475 225.586C7.39883 241.671 27.022 253.493 40.1309 247.944C49.7817 242.716 56.4568 232.503 56.4568 220.841C56.4568 218.911 56.2959 217.061 55.8938 215.212C50.5055 211.03 43.75 208.456 36.4315 208.456Z" fill="#A58DD4"/>
    <path d="M49.1383 234.513C50.5859 230.09 34.0188 224.541 32.4907 228.964L16.0845 278.102C14.6368 282.526 31.204 288.075 32.732 283.652L49.1383 234.513Z" fill="#2B3039"/>
    <path d="M25.3333 229.527C31.8476 233.548 37.2359 237.489 41.0962 244.807C35.547 251.563 28.2285 255.262 20.1862 254.297C13.672 246.094 17.0497 236.685 25.3333 229.527Z" fill="#5F3EA7"/>
    <path d="M20.2668 240.786C21.2319 237.971 23.0012 235.317 25.253 232.744C30.2392 235.961 34.3408 239.419 37.4773 244.405C34.0191 244.727 28.6308 243.842 20.2668 240.786Z" fill="#6F4BBB"/>
    <path d="M19.0599 249.23C25.5741 253.252 30.9625 257.192 34.8228 264.511C29.2736 271.266 21.9551 274.966 13.9128 274.001C7.39855 265.798 10.7763 256.388 19.0599 249.23Z" fill="#5F3EA7"/>
    <path d="M13.9931 259.685C14.9582 256.871 16.7275 254.217 18.9793 251.643C23.9655 254.86 28.0671 258.318 31.2036 263.305C27.7454 263.707 22.3571 262.742 13.9931 259.685Z" fill="#6F4BBB"/>
    <path d="M52.9987 251.161C46.8061 249.633 41.3374 248.668 34.6623 250.598C33.858 257.836 35.8686 264.43 41.0961 268.612C49.7818 267.889 53.4812 260.329 52.9987 251.161Z" fill="#5F3EA7"/>
    <path d="M49.219 259.927C50.3449 257.675 50.9079 255.101 51.1492 252.286C46.3238 251.16 41.9005 250.678 36.9947 251.723C38.764 254.056 42.4635 256.71 49.219 259.927Z" fill="#6F4BBB"/>
</svg>

<svg width="300" height="293" fill="none" xmlns="http://www.w3.org/2000/svg"><path d="M216.578 246.416H163.74v46.243h51.873c8.203-3.619 14.959-8.766 19.865-14.798-1.931-9.972-9.088-23.001-18.9-31.445z" fill="#6F4BBB"/><path d="M213.522 250.276c6.997 7.238 13.914 16.004 16.246 25.976-4.182 4.987-9.651 8.847-15.522 11.662h-44.393v-37.638h43.669z" fill="#7D5DC2"/><path d="M225.747 266.039c1.367 1.93 3.94 9.731 4.101 10.214-4.182 4.986-9.651 8.846-15.521 11.661h-23.645v-20.186a428.527 428.527 0 0035.065-1.689z" fill="#9478CF"/><path d="M216.82 282.847c-5.469 1.85-8.043 5.308-8.847 9.812h19.06c-1.287-3.861-4.906-8.605-10.213-9.812z" fill="#5F3EA7"/><path d="M216.901 284.938c2.975.804 5.469 3.137 7.077 5.791h-7.158v-5.791h.081z" fill="#6F4BBB"/><path d="M198.001 281.721c-7.318 2.011-10.857 6.917-11.742 10.938h25.414c-1.689-4.262-6.836-9.972-13.672-10.938z" fill="#5F3EA7"/><path d="M198.162 283.732c4.021.724 7.962 3.539 10.294 6.997h-10.455v-6.997h.161zm-97.794-37.316h52.838v46.243h-51.873c-8.203-3.619-14.958-8.766-19.864-14.798 1.85-9.972 9.007-23.001 18.899-31.445z" fill="#6F4BBB"/><path d="M103.343 250.276c-6.997 7.238-13.913 16.004-16.246 25.976 4.182 4.987 9.651 8.847 15.522 11.662h44.393v-37.638h-43.669z" fill="#7D5DC2"/><path d="M91.2 266.039c-1.367 1.93-3.94 9.731-4.102 10.214 4.183 4.986 9.651 8.846 15.522 11.661h23.644v-20.186a426.793 426.793 0 01-35.064-1.689z" fill="#9478CF"/><path d="M100.045 282.847c5.469 1.85 8.043 5.308 8.847 9.812h-19.06c1.286-3.861 4.905-8.605 10.213-9.812z" fill="#5F3EA7"/><path d="M99.965 284.938c-2.976.804-5.469 3.137-7.077 5.791h7.157v-5.791h-.08z" fill="#6F4BBB"/><path d="M118.864 281.721c7.319 2.011 10.857 6.917 11.742 10.938h-25.414c1.689-4.262 6.836-9.972 13.672-10.938z" fill="#5F3EA7"/><path d="M118.784 283.732c-4.021.724-7.962 3.539-10.294 6.997h10.455v-6.997h-.161z" fill="#6F4BBB"/><path d="M299.736 260.65c-.322 8.445-2.252 15.039-5.951 19.141-5.791-.482-10.697-6.916-12.949-12.465 3.378-5.871 9.973-8.525 18.9-6.676z" fill="#5F3EA7"/><path d="M296.761 262.983c-.161 4.906-1.448 9.972-4.102 13.672l-2.252-13.35c2.011-.483 4.182-.483 6.354-.322z" fill="#6F4BBB"/><path d="M285.1 265.154c-.563 7.56-1.528 14.235-6.273 20.991-8.525-1.85-15.2-6.595-18.015-14.155 4.182-9.57 14.154-10.857 24.288-6.836z" fill="#5F3EA7"/><path d="M277.619 282.928l-5.71-16.809c3.217-.643 6.836-.16 10.294.966-.563 5.71-1.528 10.776-4.584 15.843z" fill="#6F4BBB"/><path d="M257.112 271.347c-1.448 8.605-9.571 12.867-13.672 12.626-1.85-3.136-3.7-7.238-3.7-12.144l3.539-2.975c5.388-1.046 11.098-.644 13.833 2.493z" fill="#5F3EA7"/><path d="M244.888 281.078c-1.609-2.413-2.654-6.112-2.815-9.651l5.79-.965-2.975 10.616z" fill="#6F4BBB"/><path d="M239.66 156.02v115.729c20.025 2.493 43.348 1.689 60.076-11.179-.322-10.777-1.367-21.312-3.297-31.365-3.62-18.175-10.455-34.742-22.278-48.334-10.455-11.983-20.91-17.693-34.501-24.851z" fill="#6F4BBB"/><path d="M294.106 257.916c-10.455 8.042-35.547 10.535-48.736 8.847V165.349c34.019 18.096 47.53 51.471 48.736 92.567z" fill="#9478CF"/><path d="M294.106 257.916c-5.308 4.102-14.315 6.675-23.725 8.123-1.367-25.816-1.206-64.66 4.585-74.954 12.626 17.934 18.336 40.855 19.14 66.831z" fill="#A58DD4"/><path d="M270.382 240.706a7.928 7.928 0 00-7.962 7.961 7.928 7.928 0 007.962 7.962 7.929 7.929 0 007.962-7.962 7.928 7.928 0 00-7.962-7.961z" fill="#9478CF"/><path d="M251.402 65.786c2.332-15.04-.241-22.84-3.297-36.593-9.571 7.962-15.683 13.672-27.344 19.543-2.332-14.556-7.479-28.309-14.959-41.176L201.379 0c-17.05 12.868-31.606 23.162-42.865 40.211-11.26-17.05-25.816-27.343-42.866-40.211l-4.423 7.56c-7.479 12.867-12.626 26.62-14.959 41.176-11.661-5.87-17.773-11.58-27.343-19.542-3.137 13.671-5.63 21.472-3.298 36.592l-21.07 5.79c4.181 55.01 8.444 101.896 13.832 156.905.724 7.56 1.528 15.2 2.332 22.76.242 2.171 2.896 6.112 14.155 6.193 55.009 3.699 112.592 3.699 167.521 0 11.259-.161 13.913-4.022 14.154-6.193.804-7.721 1.609-15.441 2.332-23.162.322-3.136.644-6.273.965-9.49 4.585-49.058 9.088-97.955 12.868-147.093l-21.071-5.79h-.241v.08z" fill="#6F4BBB"/><path d="M199.047 11.5c9.088 15.442 14.154 31.767 15.119 48.656 9.329-3.538 19.945-9.329 29.113-16.808 1.85 8.203 1.448 18.9-1.045 28.228 7.721 1.77 14.878 3.62 22.036 5.71-3.861 50.506-7.48 101.012-12.466 151.356-.482 4.986-1.528 15.763-2.091 20.749-2.01 1.126-6.192 1.126-7.881 1.207a1252.522 1252.522 0 01-166.636 0c-1.77-.161-5.871-.161-7.882-1.207-.563-4.905-1.608-15.923-2.09-20.749-4.907-50.425-8.606-100.93-12.466-151.356 7.157-2.09 14.315-3.94 22.035-5.71-2.493-9.329-2.895-20.025-1.045-28.228 9.088 7.56 19.784 13.27 29.113 16.808.965-16.808 6.032-33.214 15.12-48.655 18.497 13.993 30.641 24.126 40.533 44.393 9.972-20.267 22.036-30.4 40.613-44.393h-.08z" fill="#9478CF"/><path d="M199.047 11.5c-1.367 22.438-6.997 47.37-17.613 57.825 14.155-1.529 21.714-3.217 32.652-9.169 9.409-3.538 20.025-9.329 29.193-16.808-4.905 14.798-9.65 25.333-19.382 35.627 8.284-.16 13.029-2.895 18.337-7.399 7.721 1.77 14.878 3.62 22.036 5.71-3.861 50.506-7.48 101.012-12.466 151.356-.482 4.986-1.528 15.763-2.091 20.749-2.01 1.126-6.192 1.126-7.881 1.207-27.666 1.849-55.492 2.734-83.318 2.734v-30.078c42.946 3.378 82.192-64.338 37.075-108.812l9.007 4.986c1.126-7.158-1.126-16.085-4.102-23.323-5.87-14.074-21.472-24.529-41.98-27.022v-13.27c9.972-20.266 21.955-30.4 40.533-44.313z" fill="#A58DD4"/><path d="M93.13 78.975c-9.65-10.294-14.476-20.91-19.382-35.707-1.85 8.203-1.448 18.899 1.045 28.228 5.308 4.584 10.053 7.318 18.337 7.48zm16.326-4.182c-4.826 0-8.686 3.941-8.686 8.686 0 4.825 3.941 8.686 8.686 8.686 4.825 0 8.685-3.941 8.685-8.686s-3.94-8.686-8.685-8.686zM77.689 94.416c-3.298 0-6.032 2.735-6.032 6.032s2.734 6.032 6.032 6.032c3.297 0 6.031-2.735 6.031-6.032 0-3.378-2.654-6.032-6.031-6.032zm57.824-25.172C124.897 58.87 119.267 33.938 117.9 11.42c-9.088 15.441-14.154 31.767-15.119 48.656 11.018 5.951 18.577 7.64 32.732 9.168z" fill="#7D5DC2"/><path d="M237.328 87.42c-7.881 0-14.315 6.434-14.315 14.315 0 7.882 6.434 14.315 14.315 14.315 7.881 0 14.315-6.433 14.315-14.315 0-7.881-6.434-14.315-14.315-14.315zm9.249 43.911c-3.137 0-5.71 2.573-5.71 5.71 0 3.136 2.573 5.71 5.71 5.71 3.136 0 5.71-2.574 5.71-5.71 0-3.137-2.574-5.71-5.71-5.71z" fill="#9478CF"/><path d="M138.569 133.18c-5.067 0-9.893 1.046-14.235 3.056v.402c0 23.725 19.784 44.876 44.715 48.093 2.734-4.986 4.343-10.696 4.343-16.808 0-19.221-15.522-34.743-34.823-34.743z" fill="#EC6277"/><path d="M157.549 95.22c34.019 0 61.604 27.586 61.604 61.605s-27.585 61.604-61.604 61.604-61.604-27.585-61.604-61.604 27.585-61.604 61.604-61.604z" fill="#D3E8EF"/><path d="M97.554 142.831c5.388-23.162 23.886-41.337 47.208-46.243 25.414-1.93 46.002 15.843 46.002 40.051 0 24.368-20.91 46.001-46.565 48.253-25.735 2.252-46.565-15.602-46.565-40.05-.08-.644-.08-1.367-.08-2.011z" fill="#fff"/><path d="M176.53 133.18c19.221 0 34.742 15.522 34.742 34.743 0 19.221-15.521 34.743-34.742 34.743-19.222 0-34.743-15.522-34.743-34.743 0-19.141 15.521-34.743 34.743-34.743z" fill="#EA4E64"/><path d="M176.531 145.404c12.465 0 22.599 10.053 22.599 22.599 0 12.466-10.053 22.599-22.599 22.599-12.466 0-22.599-10.053-22.599-22.599 0-12.465 10.053-22.599 22.599-22.599z" fill="#232323"/><path d="M176.529 145.404c4.584 0 8.847 1.367 12.386 3.7-4.343 14.395-15.763 26.62-30.4 32.41-2.815-3.78-4.504-8.525-4.504-13.511-.08-12.465 9.972-22.599 22.518-22.599z" fill="#323232"/><path d="M151.92 141.946a14.21 14.21 0 0114.235 14.235 14.21 14.21 0 01-14.235 14.235 14.21 14.21 0 01-14.235-14.235 14.21 14.21 0 0114.235-14.235z" fill="#fff"/><path d="M230.01 185.053c-17.533-9.651-43.911 7.238-41.981 34.582 16.728-5.147 34.823-20.91 41.981-34.582z" fill="#6F4BBB"/><path d="M230.01 185.053c-15.924.322-33.537 9.329-41.981 34.582 20.025-2.252 38.683-17.532 41.981-34.582z" fill="#A58DD4"/><path d="M221.726 207.893c-2.333-.804-13.27-.563-14.155.643-1.045 1.448 1.85 8.847 4.906 13.672 4.021-3.217 7.318-7.64 9.249-14.315z" fill="#7D5DC2"/><path d="M224.942 205.239c-2.332-.804-13.269-.563-14.154.643-1.046 1.448 1.85 8.847 4.906 13.672 4.021-3.217 7.318-7.64 9.248-14.315z" fill="#fff"/><path d="M221.645 201.459c-.724 15.522-20.991 30.48-40.212 24.931-1.045 4.504 2.011 7.158 5.147 7.801 17.452 1.528 34.26-9.49 39.81-23.564 1.608-3.86-.161-8.685-4.745-9.168zm3.299 29.113c-4.826 9.088-12.386 13.351-20.669 14.718 11.822 5.308 22.277-1.77 20.669-14.718z" fill="#6F4BBB"/><path d="M216.98 232.744c-9.489 5.308-18.497 6.996-28.952 6.031 7.64 5.067 22.599 5.63 28.952-6.031z" fill="#9478CF"/><path d="M136.235 77.769c19.06-32.974 69.244-13.752 64.177 23.242-12.545-20.749-36.753-27.504-64.177-23.242z" fill="#5F3EA7"/><path d="M136.237 77.769c10.777-18.578 33.456-19.784 48.656-9.57.08 4.342-1.207 7.479-3.539 9.972-12.305-5.951-28.389-8.364-45.117-.402zM36.432 203.148C16.406 203.148 0 219.233 0 239.338c0 20.106 16.406 36.191 36.432 36.191 20.025 0 36.431-16.085 36.431-36.191 0-20.105-16.406-36.19-36.431-36.19z" fill="#6F4BBB"/><path d="M36.432 208.456c-17.21 0-31.124 13.833-31.124 30.802 0 17.05 13.913 30.802 31.124 30.802 17.21 0 31.124-13.833 31.124-30.802s-13.994-30.802-31.124-30.802z" fill="#9478CF"/><path d="M36.431 208.456c-12.224 0-22.76 6.997-27.906 17.13-1.126 16.085 18.497 27.907 31.606 22.358 9.65-5.228 16.326-15.441 16.326-27.103 0-1.93-.161-3.78-.563-5.629-5.389-4.182-12.144-6.756-19.462-6.756z" fill="#A58DD4"/><path d="M49.138 234.513c1.448-4.423-15.12-9.972-16.647-5.549l-16.407 49.138c-1.447 4.424 15.12 9.973 16.648 5.55l16.406-49.139z" fill="#2B3039"/><path d="M25.333 229.527c6.515 4.021 11.903 7.962 15.763 15.28-5.549 6.756-12.867 10.455-20.91 9.49-6.514-8.203-3.136-17.612 5.147-24.77z" fill="#5F3EA7"/><path d="M20.267 240.786c.965-2.815 2.734-5.469 4.986-8.042 4.986 3.217 9.088 6.675 12.224 11.661-3.458.322-8.846-.563-17.21-3.619z" fill="#6F4BBB"/><path d="M19.06 249.23c6.514 4.022 11.902 7.962 15.763 15.281-5.55 6.755-12.868 10.455-20.91 9.49-6.514-8.203-3.137-17.613 5.147-24.771z" fill="#5F3EA7"/><path d="M13.993 259.685c.965-2.814 2.734-5.468 4.986-8.042 4.986 3.217 9.088 6.675 12.225 11.662-3.459.402-8.847-.563-17.21-3.62z" fill="#6F4BBB"/><path d="M52.999 251.161c-6.193-1.528-11.662-2.493-18.337-.563-.804 7.238 1.207 13.832 6.434 18.014 8.686-.723 12.385-8.283 11.903-17.451z" fill="#5F3EA7"/><path d="M49.219 259.927c1.126-2.252 1.689-4.826 1.93-7.641-4.825-1.126-9.248-1.608-14.154-.563 1.769 2.333 5.469 4.987 12.224 8.204z" fill="#6F4BBB"/></svg>
